X:1321
T:Up A Lazy River
%%score Mel | H1 | H2
% %staffwidth 800
C:Hoagy Carmichael and Sidney Arodin
S:Copyright 1931, Hoagy Carmichael and Sidney Arodin
M:4/4
L:1/8
Q:1/4=96
K:Bb
V:Mel
B A_A|"G7"G=Bd_a gf^FG|f2=e_e-e3d|"C7"=EGBd cB_E=E|A_A2G-G4|
"F7"Agf_f e2^FG|d2_dc-c4|"Bb"^cdF=E "F7"_E>FA>=c|"Bb"B2DF- Fzz2|
"G7"G=Bd_a gf^FG|f=e2_e-e3d|"C7"=EGBd cB_E=E|A2_AG-G4|
"Eb"gf (3ed_d-"E°7"d4|"Bb"ba (3g^f=f-"G7"f4|"C9"=gbgd "F7"fd2F|"Bb"BBAB "G7"=B4|"C9"gbgd "F7"fFGB-|"Bb"B6z2|]
V: H1
zzz|=Bdf=b ba^AB|a2gg-g3f|GBd=e ed_G=G|c_c2B-B4|
caa_a g2AB|f2=e_e-e4|Bzz2czz2|Fzz2zd (3d_dc|
=Bdf=b ba^AB|ag2g-g3f|GBd=e ed_G=G|c2_cB-B4|
e3=e-e4|f3d-d4|=eeee AA3|FFFFG4|c4c4|F6z2|]
V:H2
zzz|DG=Bd dd^CD|=B2BB-B3A|C=EGB AG_C=C|=E_E2D-D4|
Ecd^c =c2EE|A2_AG-G4|Fzz2Azz2|dzz2zF (3F=E_E|
DG=Bd dd^CD|=BB2B-B3A|C=EGB AG_C=C|=E2 _ED-D4|
B3B-B4|d3=B-B4|cccc cc3|DDDD F4|=E4_E4|D6z2|]

